Flat-Remix-Dark/panel/indicator-keyboard-Hy.svg

<svg xmlns="http://www.w3.org/2000/svg" width="22" height="22" version="1.1">
 <defs>
  <style id="current-color-scheme" type="text/css">
   .ColorScheme-Text { color:#d3dae3; } .ColorScheme-Highlight { color:#5294e2; }
  </style>
 </defs>
 <rect style="opacity:0" width="22" height="22" x="0" y="0"/>
 <path style="fill:none;stroke:currentColor;stroke-width:1.99999976;stroke-linecap:round" class="ColorScheme-Text" d="m 4.0002424,10.999998 4.0000022,0 m 0,4.000002 0,-8.0000002 M 4.0002423,15 l 0,-8.0000002 0,0"/>
 <path style="fill:none;stroke:currentColor;stroke-width:1.99999976;stroke-linecap:round" class="ColorScheme-Text" d="m 15.000243,14.998586 0,-4.000002 m 3,-3.9999988 -3,3.9999988 m -3,-3.9999988 3,3.9999988"/>
</svg>

<svg xmlns="http://www.w3.org/2000/svg" width="12pt" height="12pt" version="1.1" viewBox="0 0 12 12">
 <g>
  <path style="fill:none;stroke-width:2;stroke-linecap:round;stroke:rgb(82.745098%,85.490196%,89.019608%)" d="M 4 11 L 8 11 M 8 15 L 8 7 M 4 15 L 4 7" transform="matrix(0.5,0,0,0.5,0.5,0.5)"/>
  <path style="fill:none;stroke-width:2;stroke-linecap:round;stroke:rgb(82.745098%,85.490196%,89.019608%)" d="M 15 15 L 15 11 M 18 7 L 15 11 M 12 7 L 15 11" transform="matrix(0.5,0,0,0.5,0.5,0.5)"/>
 </g>
</svg>
